X:1
T:Title
%%score 1 { 2 | 3 }
L:1/8
Q:1/4=110
M:4/4
K:Ab
V:1 treble nm="Grand Piano, Soprano"
V:2 treble nm="Choir Pad, How It Saves, J. G. Lawson"
V:3 bass 
V:1
 [EA]2 [Ac]2- [Ac][EB] [EA]2 | E2 [DF]2 [DA]2 [DF][CE]- | [CE]2 [EA]4 [GB]2- | [GB]A [Ac]6 | %4
w: By~Homer~Alvan~Rodeheaver * * * *||||
 [EA]2 [Ac]2- [Ac][EB] [EA]2 | E2 [DF]2 [DA]2 [DF][CE]- | [CE]2 [Ec]4 [EA]2- | [EA][EB] [EA]6 | %8
w: ||||
 z2 [FA]4 [DF]2- | [DF][DA] [CE]6 | z2 [Ac]4 [EB]2- | [EB][EA] [Ac]6 | %12
w: ||||
 [EA]2 [Ac]2- [Ac][EB] [EA]2- | [EA]E [DF]2 [DA]2 [DF][CE]- | [CE]2 [Ec]4 [EA]2- | %15
w: |||
 [EA][EB] [EA]6- | [EA]2 z2 z4 |] %17
w: ||
V:2
 C2 E2- ED C2 | A,2 A,2 A,2 A,2- | A,2[K:treble] C4 D2- | DC E6 | C2 E2- ED C2 | A,2 A,2 A,2 A,2- | %6
 A,2[K:treble] A,4 C2- | CD C6 | z2[K:bass] D4 A,2- | A,A, A,6 | z2[K:treble] E4 D2- | DC E6 | %12
 C2 E2- ED C2- | C[K:bass]A, A,2 A,2 A,A,- | A,2 A,4[K:treble] C2- | CD C6- | C2 z2 z4 |] %17
V:3
 A,2 A,2- A,A, A,2 | C,2 D,2 F,2 z2 | z2 E,4 E,2- | E,A, A,6 | A,2 A,2- A,A, A,2 | C,2 D,2 F,2 z2 | %6
 z2 E,4 E,2- | E,E, A,,6 | z2 D,4 D,2- | D,F, z2 z4 | z2 A,4 A,2- | A,A, A,6 | A,2 A,2- A,A, A,2- | %13
 A,C, D,2 F,2 z2 | z2 E,4 E,2- | E,E, A,6- | A,2 z2 z4 |] %17

